symbols/web/electric_bike/materialsymbolsrounded/electric_bike_wght200grad200_48px.svg

<svg xmlns="http://www.w3.org/2000/svg" height="48" width="48"><path d="M9.7 33.2q-3.9 0-6.475-2.55Q.65 28.1.65 24.1q0-3.8 2.575-6.475T9.7 14.95q3.4 0 6.05 2.325T18.7 23.2h3.95L18.1 10.55h-2.4q-.4 0-.65-.275T14.8 9.6q0-.3.25-.575.25-.275.65-.275h6.25q.3 0 .575.275.275.275.275.625 0 .45-.25.65t-.55.25h-2l1.55 4.4H34L30.3 5.2q-.1-.35-.375-.525Q29.65 4.5 29.3 4.5H26q-.4 0-.675-.275t-.275-.675q0-.3.275-.575Q25.6 2.7 26 2.7h3.35q.9 0 1.65.475.75.475 1.05 1.375L35.9 15h2.4q3.75 0 6.4 2.6 2.65 2.6 2.65 6.4 0 3.8-2.65 6.45-2.65 2.65-6.45 2.65-3.5 0-6.05-2.35t-3-5.75H18.7q-.3 3.55-2.975 5.875Q13.05 33.2 9.7 33.2Zm0-1.8q2.6 0 4.675-1.725Q16.45 27.95 17 25h-5.2q-.4 0-.65-.275t-.25-.675q0-.35.25-.6t.65-.25H17q-.55-3-2.625-4.675Q12.3 16.85 9.75 16.85q-3.1 0-5.2 2.075T2.45 24.1q0 3.15 2.075 5.225Q6.6 31.4 9.7 31.4Zm14.9-8.2h4.6q.2-1.4 1.1-3.375.9-1.975 2.5-3.075H22.2Zm13.7 8.2q3.1 0 5.175-2.075Q45.55 27.25 45.55 24.1q0-3.1-2.1-5.175-2.1-2.075-5.1-2.075h-.925q-.475 0-.875.15l1.75 4.8q.1.45 0 .75t-.55.45q-.3.1-.65-.05-.35-.15-.45-.5l-1.8-4.9q-1.9 1-2.875 2.85Q31 22.25 31 24.1q0 3.15 2.075 5.225Q35.15 31.4 38.3 31.4ZM25.65 45.6 15.5 40.45h6.7V37l10.2 5.15h-6.75Z"/></svg>

<svg xmlns="http://www.w3.org/2000/svg" height="48" width="48"><path d="M9.7 33.2Q5.8 33.2 3.225 30.65Q0.65 28.1 0.65 24.1Q0.65 20.3 3.225 17.625Q5.8 14.95 9.7 14.95Q13.1 14.95 15.75 17.275Q18.4 19.6 18.7 23.2H22.65L18.1 10.55H15.7Q15.3 10.55 15.05 10.275Q14.8 10 14.8 9.6Q14.8 9.3 15.05 9.025Q15.3 8.75 15.7 8.75H21.95Q22.25 8.75 22.525 9.025Q22.8 9.3 22.8 9.65Q22.8 10.1 22.55 10.3Q22.3 10.5 22 10.55H20L21.55 14.95H34L30.3 5.2Q30.2 4.85 29.925 4.675Q29.65 4.5 29.3 4.5H26Q25.6 4.5 25.325 4.225Q25.05 3.95 25.05 3.55Q25.05 3.25 25.325 2.975Q25.6 2.7 26 2.7H29.35Q30.25 2.7 31 3.175Q31.75 3.65 32.05 4.55L35.9 15H38.3Q42.05 15 44.7 17.6Q47.35 20.2 47.35 24Q47.35 27.8 44.7 30.45Q42.05 33.1 38.25 33.1Q34.75 33.1 32.2 30.75Q29.65 28.4 29.2 25H18.7Q18.4 28.55 15.725 30.875Q13.05 33.2 9.7 33.2ZM9.7 31.4Q12.3 31.4 14.375 29.675Q16.45 27.95 17 25H11.8Q11.4 25 11.15 24.725Q10.9 24.45 10.9 24.05Q10.9 23.7 11.15 23.45Q11.4 23.2 11.8 23.2H17Q16.45 20.2 14.375 18.525Q12.3 16.85 9.75 16.85Q6.65 16.85 4.55 18.925Q2.45 21 2.45 24.1Q2.45 27.25 4.525 29.325Q6.6 31.4 9.7 31.4ZM24.6 23.2H29.2Q29.4 21.8 30.3 19.825Q31.2 17.85 32.8 16.75H22.2ZM38.3 31.4Q41.4 31.4 43.475 29.325Q45.55 27.25 45.55 24.1Q45.55 21 43.45 18.925Q41.35 16.85 38.35 16.85Q37.9 16.85 37.425 16.85Q36.95 16.85 36.55 17L38.3 21.8Q38.4 22.25 38.3 22.55Q38.2 22.85 37.75 23Q37.45 23.1 37.1 22.95Q36.75 22.8 36.65 22.45L34.85 17.55Q32.95 18.55 31.975 20.4Q31 22.25 31 24.1Q31 27.25 33.075 29.325Q35.15 31.4 38.3 31.4ZM25.65 45.6 15.5 40.45H22.2V37L32.4 42.15H25.65Z"/></svg>
